img/i/text-lines-1.svg

<svg enable-background="new 0 0 512 512" viewBox="0 0 512 512" xmlns="http://www.w3.org/2000/svg"><path d="m500.416 421.64c0 15.916-12.902 28.818-28.818 28.818h-431.196c-15.916 0-28.818-12.902-28.818-28.818v-331.278c0-15.916 12.902-28.818 28.818-28.818h431.197c15.916 0 28.818 12.902 28.818 28.818z" fill="#269af2"/><path d="m418.45 121.78v222.639h-174.034-174.033v-222.639z" fill="#181818"/><path d="m70.383 344.419h348.067v45.802h-348.067z" fill="#4c5870"/><g fill="#11113f"><path d="m471.598 49.959h-431.196c-22.278 0-40.402 18.125-40.402 40.403v331.278c0 22.278 18.124 40.402 40.402 40.402h431.197c22.277 0 40.402-18.124 40.402-40.402v-331.278c-.001-22.278-18.125-40.403-40.403-40.403zm17.235 371.681c0 9.503-7.731 17.234-17.234 17.234h-431.197c-9.503 0-17.234-7.731-17.234-17.234v-331.278c0-9.503 7.731-17.234 17.234-17.234h431.197c9.503 0 17.234 7.731 17.234 17.234z"/><path d="m418.452 110.194h-348.072c-6.398 0-11.584 5.186-11.584 11.584v268.444c0 6.398 5.186 11.584 11.584 11.584h348.072c6.397 0 11.584-5.186 11.584-11.584v-268.444c0-6.398-5.186-11.584-11.584-11.584zm-11.583 268.446h-324.905v-22.633h324.905zm0-45.801h-324.905v-199.477h324.905z"/><path d="m185.339 244.684h118.154c6.397 0 11.584-5.186 11.584-11.584s-5.187-11.584-11.584-11.584h-118.154c-6.398 0-11.584 5.186-11.584 11.584s5.187 11.584 11.584 11.584z"/></g><circle cx="459.433" cy="256.001" fill="#fff" r="11.584"/></svg>

<?xml version="1.0" encoding="iso-8859-1"?>
<!-- Generator: Adobe Illustrator 19.0.0, SVG Export Plug-In . SVG Version: 6.00 Build 0)  -->
<svg version="1.1" id="Layer_1" xmlns="http://www.w3.org/2000/svg" xmlns:xlink="http://www.w3.org/1999/xlink" x="0px" y="0px"
	 viewBox="0 0 512 512" style="enable-background:new 0 0 512 512;" xml:space="preserve">
<path style="fill:#269AF2;" d="M500.416,421.64c0,15.916-12.902,28.818-28.818,28.818H40.402c-15.916,0-28.818-12.902-28.818-28.818
	V90.362c0-15.916,12.902-28.818,28.818-28.818h431.197c15.916,0,28.818,12.902,28.818,28.818L500.416,421.64L500.416,421.64z"/>
<polygon style="fill:#181818;" points="418.45,121.78 418.45,344.419 244.416,344.419 70.383,344.419 70.383,121.78 "/>
<rect x="70.383" y="344.419" style="fill:#4C5870;" width="348.067" height="45.802"/>
<g>
	<path style="fill:#11113F;" d="M471.598,49.959H40.402C18.124,49.959,0,68.084,0,90.362V421.64
		c0,22.278,18.124,40.402,40.402,40.402h431.197c22.277,0,40.402-18.124,40.402-40.402V90.362
		C512,68.084,493.876,49.959,471.598,49.959z M488.833,421.64c0,9.503-7.731,17.234-17.234,17.234H40.402
		c-9.503,0-17.234-7.731-17.234-17.234V90.362c0-9.503,7.731-17.234,17.234-17.234h431.197c9.503,0,17.234,7.731,17.234,17.234
		L488.833,421.64L488.833,421.64z"/>
	<path style="fill:#11113F;" d="M418.452,110.194H70.38c-6.398,0-11.584,5.186-11.584,11.584v268.444
		c0,6.398,5.186,11.584,11.584,11.584h348.072c6.397,0,11.584-5.186,11.584-11.584V121.778
		C430.036,115.38,424.85,110.194,418.452,110.194z M406.869,378.64H81.964v-22.633h324.905V378.64z M406.869,332.839H81.964V133.362
		h324.905V332.839z"/>
	<path style="fill:#11113F;" d="M185.339,244.684h118.154c6.397,0,11.584-5.186,11.584-11.584s-5.187-11.584-11.584-11.584H185.339
		c-6.398,0-11.584,5.186-11.584,11.584S178.942,244.684,185.339,244.684z"/>
</g>
<circle style="fill:#FFFFFF;" cx="459.433" cy="256.001" r="11.584"/>
<g>
</g>
<g>
</g>
<g>
</g>
<g>
</g>
<g>
</g>
<g>
</g>
<g>
</g>
<g>
</g>
<g>
</g>
<g>
</g>
<g>
</g>
<g>
</g>
<g>
</g>
<g>
</g>
<g>
</g>
</svg>
